usr/share/icons/biglinux-icons-material/24/actions/paint-order-sfm.svg

<svg width="24" height="24" version="1.1" xmlns="http://www.w3.org/2000/svg">
 <defs>
  <style id="current-color-scheme" type="text/css">.ColorScheme-Text { color:#dedede; }</style>
 </defs>
 <path d="m18.367 5.5c0.72222 1.3397 1.1328 2.8713 1.1328 4.5h4.5v-4.5h-5.6328zm-12.867 12.867v5.6328h4.5v-4.5c-1.6287 0-3.1603-0.41059-4.5-1.1328z" style="fill:currentColor" class="ColorScheme-Text" opacity=".35"/>
 <path d="m18.066 5c0.1994 0.32101 0.38033 0.65497 0.54102 1h5.3926v-1h-5.9336zm-13.066 13.066v5.9336h1v-5.3926c-0.34503-0.16068-0.67899-0.34161-1-0.54102z" style="fill:currentColor" class="ColorScheme-Text"/>
 <path d="m21 9v1h2v-1h-2zm-12 12v2h1v-2h-1z" style="fill:currentColor" class="ColorScheme-Text"/>
 <path d="m19.5 10c0 5.2467-4.2533 9.5-9.5 9.5v4.5h14v-14h-4.5z" style="fill:currentColor" class="ColorScheme-Text" opacity=".5"/>
 <g style="fill:currentColor" class="ColorScheme-Text">
  <path style="fill:currentColor" class="ColorScheme-Text" d="m19.5 10c0 5.2467-4.2533 9.5-9.5 9.5s-9.5-4.2533-9.5-9.5 4.2533-9.5 9.5-9.5 9.5 4.2533 9.5 9.5z" opacity=".15"/>
  <path style="fill:currentColor" class="ColorScheme-Text" d="m10 0c-5.5169 0-10 4.4831-10 10s4.4831 10 10 10 10-4.4831 10-10-4.4831-10-10-10zm0 1c4.9765 0 9 4.0235 9 9s-4.0235 9-9 9-9-4.0235-9-9 4.0235-9 9-9z"/>
  <path style="fill:currentColor" class="ColorScheme-Text" d="m19.5 10c0 5.2467-4.2533 9.5-9.5 9.5s-9.5-4.2533-9.5-9.5 4.2533-9.5 9.5-9.5 9.5 4.2533 9.5 9.5z" opacity=".15"/>
  <path style="fill:currentColor" class="ColorScheme-Text" d="m10 0c-5.5169 0-10 4.4831-10 10s4.4831 10 10 10 10-4.4831 10-10-4.4831-10-10-10zm0 1c4.9765 0 9 4.0235 9 9s-4.0235 9-9 9-9-4.0235-9-9 4.0235-9 9-9z"/>
  <path style="fill:currentColor" class="ColorScheme-Text" d="m19.5 10c0 5.2467-4.2533 9.5-9.5 9.5s-9.5-4.2533-9.5-9.5 4.2533-9.5 9.5-9.5 9.5 4.2533 9.5 9.5z" opacity=".15"/>
  <path style="fill:currentColor" class="ColorScheme-Text" d="m10 0c-5.5169 0-10 4.4831-10 10s4.4831 10 10 10 10-4.4831 10-10-4.4831-10-10-10zm0 1c4.9765 0 9 4.0235 9 9s-4.0235 9-9 9-9-4.0235-9-9 4.0235-9 9-9z"/>
 </g>
</svg>

<svg xmlns="http://www.w3.org/2000/svg" width="24" height="24"><defs><style id="current-color-scheme" type="text/css">.ColorScheme-Text{color:#dedede}</style></defs><path d="M18.367 5.5A9.453 9.453 0 0 1 19.5 10H24V5.5h-5.633zM5.5 18.367V24H10v-4.5c-1.629 0-3.16-.41-4.5-1.133z" class="ColorScheme-Text" opacity=".35" style="fill:currentColor"/><path d="M18.066 5c.2.321.38.655.541 1H24V5h-5.934zM5 18.066V24h1v-5.393a9.48 9.48 0 0 1-1-.541zM21 9v1h2V9h-2zM9 21v2h1v-2H9z" class="ColorScheme-Text" style="fill:currentColor"/><path d="M19.5 10a9.5 9.5 0 0 1-9.5 9.5V24h14V10h-4.5z" class="ColorScheme-Text" opacity=".5" style="fill:currentColor"/><g class="ColorScheme-Text" style="fill:currentColor"><path d="M19.5 10a9.5 9.5 0 1 1-19 0 9.5 9.5 0 0 1 19 0z" class="ColorScheme-Text" opacity=".15" style="fill:currentColor"/><path d="M10 0C4.483 0 0 4.483 0 10s4.483 10 10 10 10-4.483 10-10S15.517 0 10 0zm0 1c4.976 0 9 4.024 9 9s-4.024 9-9 9-9-4.024-9-9 4.024-9 9-9z" class="ColorScheme-Text" style="fill:currentColor"/><path d="M19.5 10a9.5 9.5 0 1 1-19 0 9.5 9.5 0 0 1 19 0z" class="ColorScheme-Text" opacity=".15" style="fill:currentColor"/><path d="M10 0C4.483 0 0 4.483 0 10s4.483 10 10 10 10-4.483 10-10S15.517 0 10 0zm0 1c4.976 0 9 4.024 9 9s-4.024 9-9 9-9-4.024-9-9 4.024-9 9-9z" class="ColorScheme-Text" style="fill:currentColor"/><path d="M19.5 10a9.5 9.5 0 1 1-19 0 9.5 9.5 0 0 1 19 0z" class="ColorScheme-Text" opacity=".15" style="fill:currentColor"/><path d="M10 0C4.483 0 0 4.483 0 10s4.483 10 10 10 10-4.483 10-10S15.517 0 10 0zm0 1c4.976 0 9 4.024 9 9s-4.024 9-9 9-9-4.024-9-9 4.024-9 9-9z" class="ColorScheme-Text" style="fill:currentColor"/></g></svg>
